!!!OTL: WALDVOEGELEIN WO SINGST DU
!!!ARE: Europa, Mitteleuropa, Deutschland
!!!SCT: F0982
!!!YEM: Copyright 1995, estate of Helmut Schaffrath.
**kern
*ICvox
*Ivox
*M6/8
*k[f#c#g#d#]
*E:
=1
{8e
8B
8A#
4B
8e
=2
4.g#
4.e}
=3
{8f#
8B
8c#
4d#
8f#
=4
4.a
4.f#}
=5
{8g#
8f#
8e
8d#
8d#
8e
=6
4.f#
4.g#}
=7
{8g#
8f#
8e
8d#
8d#
8e
=8
4.f#
4.g#}
=9
{4.e
4.B
=10
4.g#
4e}
{8e
=11
8e
8B
8B
8g#
8e
8e
=12
4f#
8b
4e
8r}
==
!!!AGN: Natur - Lied, Tier
!!!ONB: ESAC (Essen Associative Code) Database: FINK
!!!AMT: compound duple
!!!AIN: vox
!!!EED: Helmut Schaffrath
!!!EEV: 1.0
*-
